X:166
T: Jaj, Istenem, adj egy jót...
M: 2/4
L:1/8
K: F
gffg | fd d2 | gffg | fd d2 | 
gffg | fd g2 | d2 cB | AG G2 | 
GA A2 | A2 d2 | d2 cB | AG G2 |
gfed | cBcB | A2<G2 | G4 | 

